app/assets/images/status/error-lock.svg

<svg width="100" height="100" viewBox="0 0 100 100" fill="none" xmlns="http://www.w3.org/2000/svg"><g filter="url(#filter0_d_119_1044)"><path d="M50 94C74.3005 94 94 74.3005 94 50C94 25.6995 74.3005 6 50 6C25.6995 6 6 25.6995 6 50C6 74.3005 25.6995 94 50 94Z" fill="white"/></g><path d="M49.9994 89.6009C71.8704 89.6009 89.6003 71.871 89.6003 50C89.6003 28.129 71.8704 10.399 49.9994 10.399C28.1284 10.399 10.3984 28.129 10.3984 50C10.3984 71.871 28.1284 89.6009 49.9994 89.6009Z" fill="#E21C3D"/><path d="M50.0002 85.6408C69.6841 85.6408 85.6411 69.6838 85.6411 50C85.6411 30.3161 69.6841 14.3591 50.0002 14.3591C30.3163 14.3591 14.3594 30.3161 14.3594 50C14.3594 69.6838 30.3163 85.6408 50.0002 85.6408Z" fill="white"/><path d="M49.9992 68.6906C39.6925 68.6906 31.3086 60.3067 31.3086 50C31.3086 39.6932 39.6925 31.3093 49.9992 31.3093C60.306 31.3093 68.6899 39.6932 68.6899 50C68.6899 60.3067 60.306 68.6906 49.9992 68.6906Z" fill="#E21C3D"/><path d="M49.999 31.3094V68.6907C60.3058 68.6907 68.6897 60.3068 68.6897 50C68.6897 39.6933 60.3058 31.3094 49.999 31.3094Z" fill="#B51E23"/><path d="M55.3236 46.8932H54.4364V45.1188C54.4364 42.6704 52.4486 40.6826 50.0002 40.6826C47.5518 40.6826 45.564 42.6704 45.564 45.1188V46.8932H44.6768C43.6999 46.8932 42.9023 47.6908 42.9023 48.6677V57.5431C42.9023 58.52 43.6999 59.3176 44.6768 59.3176H55.3267C56.3036 59.3176 57.1012 58.52 57.1012 57.5431V48.6677C57.1012 47.6908 56.3036 46.8932 55.3267 46.8932H55.3236ZM47.3354 45.1188C47.3354 43.6442 48.5256 42.4571 49.9971 42.4571C51.4686 42.4571 52.6588 43.6472 52.6588 45.1188V46.8932H47.3323V45.1188H47.3354ZM55.3236 57.5431H44.6737V48.6677H55.3236V57.5431ZM49.9971 54.8814C50.974 54.8814 51.7716 54.0838 51.7716 53.107C51.7716 52.1301 50.974 51.3325 49.9971 51.3325C49.0202 51.3325 48.2227 52.1301 48.2227 53.107C48.2227 54.0838 49.0202 54.8814 49.9971 54.8814Z" fill="white"/><defs><filter id="filter0_d_119_1044" x="0" y="0" width="100" height="100" filterUnits="userSpaceOnUse" color-interpolation-filters="sRGB"><feFlood flood-opacity="0" result="BackgroundImageFix"/><feColorMatrix in="SourceAlpha" type="matrix" values="0 0 0 0 0 0 0 0 0 0 0 0 0 0 0 0 0 0 127 0" result="hardAlpha"/><feOffset/><feGaussianBlur stdDeviation="3"/><feColorMatrix type="matrix" values="0 0 0 0 0 0 0 0 0 0 0 0 0 0 0 0 0 0 0.24 0"/><feBlend mode="normal" in2="BackgroundImageFix" result="effect1_dropShadow_119_1044"/><feBlend mode="normal" in="SourceGraphic" in2="effect1_dropShadow_119_1044" result="shape"/></filter></defs></svg>

<svg width="100" height="100" viewBox="0 0 100 100" fill="none" xmlns="http://www.w3.org/2000/svg"><g filter="url(#a)"><path d="M50 94c24.3 0 44-19.7 44-44S74.3 6 50 6 6 25.7 6 50s19.7 44 44 44Z" fill="#fff"/></g><path d="M50 89.6c21.87 0 39.6-17.729 39.6-39.6 0-21.871-17.73-39.601-39.6-39.601-21.872 0-39.602 17.73-39.602 39.601S28.128 89.6 50 89.6Z" fill="#E21C3D"/><path d="M50 85.64c19.684 0 35.641-15.956 35.641-35.64s-15.957-35.64-35.64-35.64c-19.685 0-35.642 15.956-35.642 35.64S30.316 85.64 50 85.64Z" fill="#fff"/><path d="M50 68.69c-10.307 0-18.691-8.383-18.691-18.69 0-10.307 8.384-18.69 18.69-18.69 10.307 0 18.69 8.383 18.69 18.69 0 10.307-8.383 18.69-18.69 18.69Z" fill="#E21C3D"/><path d="M49.999 31.31v37.38c10.307 0 18.69-8.383 18.69-18.69 0-10.307-8.383-18.69-18.69-18.69Z" fill="#B51E23"/><path d="M55.324 46.893h-.888V45.12A4.438 4.438 0 0 0 50 40.683a4.438 4.438 0 0 0-4.436 4.436v1.774h-.887a1.78 1.78 0 0 0-1.775 1.775v8.875a1.78 1.78 0 0 0 1.775 1.775h10.65c.977 0 1.774-.798 1.774-1.775v-8.875c0-.977-.797-1.775-1.774-1.775h-.003Zm-7.989-1.774a2.658 2.658 0 0 1 2.662-2.662 2.66 2.66 0 0 1 2.662 2.662v1.774h-5.327V45.12h.003Zm7.989 12.424h-10.65v-8.875h10.65v8.875Zm-5.327-2.662c.977 0 1.775-.797 1.775-1.774s-.798-1.774-1.775-1.774c-.977 0-1.774.797-1.774 1.774s.797 1.774 1.774 1.774Z" fill="#fff"/><defs><filter id="a" x="0" y="0" width="100" height="100" filterUnits="userSpaceOnUse" color-interpolation-filters="sRGB"><feFlood flood-opacity="0" result="BackgroundImageFix"/><feColorMatrix in="SourceAlpha" values="0 0 0 0 0 0 0 0 0 0 0 0 0 0 0 0 0 0 127 0" result="hardAlpha"/><feOffset/><feGaussianBlur stdDeviation="3"/><feColorMatrix values="0 0 0 0 0 0 0 0 0 0 0 0 0 0 0 0 0 0 0.24 0"/><feBlend in2="BackgroundImageFix" result="effect1_dropShadow_119_1044"/><feBlend in="SourceGraphic" in2="effect1_dropShadow_119_1044" result="shape"/></filter></defs></svg>
